gtk/icons/scalable/actions/gesture-two-finger-swipe-left-symbolic.svg

<?xml version="1.0" encoding="UTF-8" standalone="no"?>
<svg
   width="64"
   height="64"
   viewBox="0 0 64 64.000001"
   id="svg6535"
   version="1.1"
   xmlns="http://www.w3.org/2000/svg"
   xmlns:svg="http://www.w3.org/2000/svg"
   xmlns:rdf="http://www.w3.org/1999/02/22-rdf-syntax-ns#"
   xmlns:cc="http://creativecommons.org/ns#"
   xmlns:dc="http://purl.org/dc/elements/1.1/">
  <defs
     id="defs6537" />
  <metadata
     id="metadata6540">
    <rdf:RDF>
      <cc:Work
         rdf:about="">
        <dc:format>image/svg+xml</dc:format>
        <dc:type
           rdf:resource="http://purl.org/dc/dcmitype/StillImage" />
      </cc:Work>
    </rdf:RDF>
  </metadata>
  <g
     id="layer1"
     transform="translate(180,-470.14793)">
    <path
       style="color:#000000;clip-rule:nonzero;display:inline;overflow:visible;visibility:visible;opacity:1;isolation:auto;mix-blend-mode:normal;color-interpolation:sRGB;color-interpolation-filters:linearRGB;solid-color:#000000;solid-opacity:1;fill:#000000;fill-opacity:1;fill-rule:nonzero;stroke:#4a90d9;stroke-width:0;stroke-linecap:round;stroke-linejoin:miter;stroke-miterlimit:4;stroke-dasharray:none;stroke-dashoffset:0;stroke-opacity:1;marker:none;color-rendering:auto;image-rendering:auto;shape-rendering:auto;text-rendering:auto;enable-background:accumulate"
       d="m 38.271484,6.0039062 c -0.289592,-0.00827 -0.578781,-0.002 -0.865234,0.017578 -3.159873,0.2159427 -6.073275,2.1034501 -7.503906,5.0605468 -0.728551,-0.09199 -1.454487,-0.103329 -2.164063,-0.01953 -3.371561,0.398168 -6.364362,2.699584 -7.496093,6.085938 H 12 v -7 l -10,9.5 10,9.5 v -7 h 8.048828 C 20.694441,24.742195 22.473591,26.994506 25,28.162109 V 47 H 24 V 39.185547 C 24,36.866788 22.215997,35 20,35 c -2.215997,0 -4,1.866788 -4,4.185547 V 47 55.814453 60 h 4 25 11 c 2.215997,0 4,-1.866788 4,-4.185547 v -12.628906 -9 C 60,31.866788 58.215997,30 56,30 c -2.215997,0 -4,1.866788 -4,4.185547 V 39 H 51 V 28.185547 C 51,25.866788 49.215997,24 47,24 c -2.215997,0 -4,1.866788 -4,4.185547 V 39 H 42 V 23.042969 c 2.136586,-1.064156 3.853243,-2.958512 4.603516,-5.402344 1.42528,-4.64253 -1.121747,-9.6135688 -5.722657,-11.1679688 -0.862672,-0.2914499 -1.740596,-0.4439446 -2.609375,-0.46875 z m -0.09961,2.9941407 c 0.580249,0.018444 1.168117,0.1224312 1.748047,0.3183593 3.09296,1.0449398 4.774556,4.3243628 3.816406,7.4453128 C 43.402083,17.85044 42.787396,18.769252 42,19.474609 V 15.185547 C 42,12.866788 40.215997,11 38,11 c -2.215997,0 -4,1.866788 -4,4.185547 v 7.759765 c -0.27497,0.491626 -0.613366,0.931636 -1,1.316407 V 20.185547 C 33,17.866788 31.215997,16 29,16 c -2.215997,0 -4,1.866788 -4,4.185547 v 4.480469 c -1.849718,-1.486355 -2.702865,-3.98219 -1.972656,-6.400391 0.95426,-3.16014 4.23426,-4.94532 7.40625,-4.03125 a 1.50015,1.50015 0 0 0 1.927734,-1.289063 1.50015,1.50015 0 0 0 0.0098,-0.02344 c 0.91888,-2.488346 3.286367,-4.0037509 5.800781,-3.9238281 z M 34,27.302734 V 39 H 33 V 27.925781 c 0.346618,-0.184881 0.679606,-0.394512 1,-0.623047 z"
       transform="translate(-180,470.14793)"
       id="rect7308" />
  </g>
</svg>

<?xml version="1.0" encoding="UTF-8" standalone="no"?>
<!-- Created with Inkscape (http://www.inkscape.org/) -->

<svg
   xmlns:dc="http://purl.org/dc/elements/1.1/"
   xmlns:cc="http://creativecommons.org/ns#"
   xmlns:rdf="http://www.w3.org/1999/02/22-rdf-syntax-ns#"
   xmlns:svg="http://www.w3.org/2000/svg"
   xmlns="http://www.w3.org/2000/svg"
   xmlns:sodipodi="http://sodipodi.sourceforge.net/DTD/sodipodi-0.dtd"
   xmlns:inkscape="http://www.inkscape.org/namespaces/inkscape"
   width="64"
   height="64"
   viewBox="0 0 64 64.000001"
   id="svg6535"
   version="1.1"
   inkscape:version="0.91 r13725"
   sodipodi:docname="two-finger-swipe-left.svg">
  <defs
     id="defs6537" />
  <sodipodi:namedview
     id="base"
     pagecolor="#ffffff"
     bordercolor="#666666"
     borderopacity="1.0"
     inkscape:pageopacity="0.0"
     inkscape:pageshadow="2"
     inkscape:zoom="1"
     inkscape:cx="0.8190337"
     inkscape:cy="13.44962"
     inkscape:document-units="px"
     inkscape:current-layer="layer1"
     showgrid="false"
     units="px"
     inkscape:showpageshadow="false"
     fit-margin-top="0"
     fit-margin-left="0"
     fit-margin-right="0"
     fit-margin-bottom="0"
     inkscape:window-width="2560"
     inkscape:window-height="1376"
     inkscape:window-x="0"
     inkscape:window-y="27"
     inkscape:window-maximized="1">
    <inkscape:grid
       type="xygrid"
       id="grid7931" />
  </sodipodi:namedview>
  <metadata
     id="metadata6540">
    <rdf:RDF>
      <cc:Work
         rdf:about="">
        <dc:format>image/svg+xml</dc:format>
        <dc:type
           rdf:resource="http://purl.org/dc/dcmitype/StillImage" />
        <dc:title></dc:title>
      </cc:Work>
    </rdf:RDF>
  </metadata>
  <g
     inkscape:label="Layer 1"
     inkscape:groupmode="layer"
     id="layer1"
     transform="translate(180,-470.14793)">
    <path
       style="color:#000000;clip-rule:nonzero;display:inline;overflow:visible;visibility:visible;opacity:1;isolation:auto;mix-blend-mode:normal;color-interpolation:sRGB;color-interpolation-filters:linearRGB;solid-color:#000000;solid-opacity:1;fill:#000000;fill-opacity:1;fill-rule:nonzero;stroke:#4a90d9;stroke-width:0;stroke-linecap:round;stroke-linejoin:miter;stroke-miterlimit:4;stroke-dasharray:none;stroke-dashoffset:0;stroke-opacity:1;marker:none;color-rendering:auto;image-rendering:auto;shape-rendering:auto;text-rendering:auto;enable-background:accumulate"
       d="M 38.271484 6.0039062 C 37.981892 5.9956378 37.692703 6.0019094 37.40625 6.0214844 C 34.246377 6.2374271 31.332975 8.1249345 29.902344 11.082031 C 29.173793 10.990041 28.447857 10.978702 27.738281 11.0625 C 24.36672 11.460668 21.373919 13.762084 20.242188 17.148438 L 12 17.148438 L 12 10.148438 L 2 19.648438 L 12 29.148438 L 12 22.148438 L 20.048828 22.148438 C 20.694441 24.742195 22.473591 26.994506 25 28.162109 L 25 47 L 24 47 L 24 39.185547 C 24 36.866788 22.215997 35 20 35 C 17.784003 35 16 36.866788 16 39.185547 L 16 47 L 16 55.814453 L 16 60 L 20 60 L 45 60 L 56 60 C 58.215997 60 60 58.133212 60 55.814453 L 60 43.185547 L 60 34.185547 C 60 31.866788 58.215997 30 56 30 C 53.784003 30 52 31.866788 52 34.185547 L 52 39 L 51 39 L 51 28.185547 C 51 25.866788 49.215997 24 47 24 C 44.784003 24 43 25.866788 43 28.185547 L 43 39 L 42 39 L 42 23.042969 C 44.136586 21.978813 45.853243 20.084457 46.603516 17.640625 C 48.028796 12.998095 45.481769 8.0270562 40.880859 6.4726562 C 40.018187 6.1812063 39.140263 6.0287116 38.271484 6.0039062 z M 38.171875 8.9980469 C 38.752124 9.0164906 39.339992 9.1204781 39.919922 9.3164062 C 43.012882 10.361346 44.694478 13.640769 43.736328 16.761719 C 43.402083 17.85044 42.787396 18.769252 42 19.474609 L 42 15.185547 C 42 12.866788 40.215997 11 38 11 C 35.784003 11 34 12.866788 34 15.185547 L 34 22.945312 C 33.72503 23.436938 33.386634 23.876948 33 24.261719 L 33 20.185547 C 33 17.866788 31.215997 16 29 16 C 26.784003 16 25 17.866788 25 20.185547 L 25 24.666016 C 23.150282 23.179661 22.297135 20.683826 23.027344 18.265625 C 23.981604 15.105485 27.261604 13.320305 30.433594 14.234375 A 1.50015 1.50015 0 0 0 32.361328 12.945312 A 1.50015 1.50015 0 0 0 32.371094 12.921875 C 33.289974 10.433529 35.657461 8.9181241 38.171875 8.9980469 z M 34 27.302734 L 34 39 L 33 39 L 33 27.925781 C 33.346618 27.7409 33.679606 27.531269 34 27.302734 z "
       transform="translate(-180,470.14793)"
       id="rect7308" />
    <g
       style="display:inline"
       transform="translate(80,114.14791)"
       id="g7391">
      <g
         id="g7393">
        <rect
           rx="3.999995"
           ry="4.1854858"
           y="391"
           x="-324"
           height="24.999994"
           width="7.99999"
           id="rect7395"
           style="color:#000000;clip-rule:nonzero;display:inline;overflow:visible;visibility:visible;opacity:1;isolation:auto;mix-blend-mode:normal;color-interpolation:sRGB;color-interpolation-filters:linearRGB;solid-color:#000000;solid-opacity:1;fill:#000000;fill-opacity:1;fill-rule:nonzero;stroke:#4a90d9;stroke-width:0;stroke-linecap:round;stroke-linejoin:miter;stroke-miterlimit:4;stroke-dasharray:none;stroke-dashoffset:0;stroke-opacity:1;marker:none;color-rendering:auto;image-rendering:auto;shape-rendering:auto;text-rendering:auto;enable-background:accumulate" />
        <rect
           style="color:#000000;clip-rule:nonzero;display:inline;overflow:visible;visibility:visible;opacity:1;isolation:auto;mix-blend-mode:normal;color-interpolation:sRGB;color-interpolation-filters:linearRGB;solid-color:#000000;solid-opacity:1;fill:#000000;fill-opacity:1;fill-rule:nonzero;stroke:#4a90d9;stroke-width:0;stroke-linecap:round;stroke-linejoin:miter;stroke-miterlimit:4;stroke-dasharray:none;stroke-dashoffset:0;stroke-opacity:1;marker:none;color-rendering:auto;image-rendering:auto;shape-rendering:auto;text-rendering:auto;enable-background:accumulate"
           id="rect7397"
           width="7.99999"
           height="43.999989"
           x="-315"
           y="372.00003"
           ry="4.1854858"
           rx="3.999995" />
        <rect
           rx="3.999995"
           ry="4.1854858"
           y="367"
           x="-306"
           height="49.000015"
           width="7.99999"
           id="rect7399"
           style="color:#000000;clip-rule:nonzero;display:inline;overflow:visible;visibility:visible;opacity:1;isolation:auto;mix-blend-mode:normal;color-interpolation:sRGB;color-interpolation-filters:linearRGB;solid-color:#000000;solid-opacity:1;fill:#000000;fill-opacity:1;fill-rule:nonzero;stroke:#4a90d9;stroke-width:0;stroke-linecap:round;stroke-linejoin:miter;stroke-miterlimit:4;stroke-dasharray:none;stroke-dashoffset:0;stroke-opacity:1;marker:none;color-rendering:auto;image-rendering:auto;shape-rendering:auto;text-rendering:auto;enable-background:accumulate" />
        <rect
           style="color:#000000;clip-rule:nonzero;display:inline;overflow:visible;visibility:visible;opacity:1;isolation:auto;mix-blend-mode:normal;color-interpolation:sRGB;color-interpolation-filters:linearRGB;solid-color:#000000;solid-opacity:1;fill:#000000;fill-opacity:1;fill-rule:nonzero;stroke:#4a90d9;stroke-width:0;stroke-linecap:round;stroke-linejoin:miter;stroke-miterlimit:4;stroke-dasharray:none;stroke-dashoffset:0;stroke-opacity:1;marker:none;color-rendering:auto;image-rendering:auto;shape-rendering:auto;text-rendering:auto;enable-background:accumulate"
           id="rect7401"
           width="7.99999"
           height="36.000011"
           x="-297"
           y="380"
           ry="4.1854858"
           rx="3.999995" />
        <rect
           rx="3.999995"
           ry="4.1854858"
           y="386"
           x="-288"
           height="30.000006"
           width="7.99999"
           id="rect7403"
           style="color:#000000;clip-rule:nonzero;display:inline;overflow:visible;visibility:visible;opacity:1;isolation:auto;mix-blend-mode:normal;color-interpolation:sRGB;color-interpolation-filters:linearRGB;solid-color:#000000;solid-opacity:1;fill:#000000;fill-opacity:1;fill-rule:nonzero;stroke:#4a90d9;stroke-width:0;stroke-linecap:round;stroke-linejoin:miter;stroke-miterlimit:4;stroke-dasharray:none;stroke-dashoffset:0;stroke-opacity:1;marker:none;color-rendering:auto;image-rendering:auto;shape-rendering:auto;text-rendering:auto;enable-background:accumulate" />
        <rect
           style="color:#000000;clip-rule:nonzero;display:inline;overflow:visible;visibility:visible;opacity:1;isolation:auto;mix-blend-mode:normal;color-interpolation:sRGB;color-interpolation-filters:linearRGB;solid-color:#000000;solid-opacity:1;fill:#000000;fill-opacity:1;fill-rule:nonzero;stroke:#4a90d9;stroke-width:0;stroke-linecap:round;stroke-linejoin:miter;stroke-miterlimit:4;stroke-dasharray:none;stroke-dashoffset:0;stroke-opacity:1;marker:none;color-rendering:auto;image-rendering:auto;shape-rendering:auto;text-rendering:auto;enable-background:accumulate"
           id="rect7405"
           width="28.999994"
           height="12.99999"
           x="-324"
           y="403" />
        <rect
           style="color:#000000;clip-rule:nonzero;display:inline;overflow:visible;visibility:visible;opacity:1;isolation:auto;mix-blend-mode:normal;color-interpolation:sRGB;color-interpolation-filters:linearRGB;solid-color:#000000;solid-opacity:1;fill:#000000;fill-opacity:1;fill-rule:nonzero;stroke:#4a90d9;stroke-width:0;stroke-linecap:round;stroke-linejoin:miter;stroke-miterlimit:4;stroke-dasharray:none;stroke-dashoffset:0;stroke-opacity:1;marker:none;color-rendering:auto;image-rendering:auto;shape-rendering:auto;text-rendering:auto;enable-background:accumulate"
           id="rect7407"
           width="34.999985"
           height="21"
           x="-315"
           y="395"
           ry="4.1854858"
           rx="3.999995" />
        <path
           sodipodi:open="true"
           d="m -309.03562,368.40192 a 7.4999938,7.5000024 0 0 1 9.43617,-4.50737 7.4999938,7.5000024 0 0 1 4.76917,9.30661 7.4999938,7.5000024 0 0 1 -9.16976,5.02725"
           sodipodi:end="1.8407347"
           sodipodi:start="3.4953343"
           sodipodi:ry="7.5000024"
           sodipodi:rx="7.4999938"
           sodipodi:cy="371"
           sodipodi:cx="-302"
           sodipodi:type="arc"
           id="path7409"
           style="color:#000000;display:inline;overflow:visible;visibility:visible;fill:none;stroke:#000000;stroke-width:3;stroke-linecap:round;stroke-linejoin:miter;stroke-miterlimit:4;stroke-dasharray:none;stroke-dashoffset:0;stroke-opacity:1;marker:none;enable-background:accumulate" />
        <path
           sodipodi:open="true"
           style="color:#000000;display:inline;overflow:visible;visibility:visible;fill:none;stroke:#000000;stroke-width:3;stroke-linecap:round;stroke-linejoin:miter;stroke-miterlimit:4;stroke-dasharray:none;stroke-dashoffset:0;stroke-opacity:1;marker:none;enable-background:accumulate"
           id="path7411"
           sodipodi:type="arc"
           sodipodi:cx="-311.22797"
           sodipodi:cy="375.99963"
           sodipodi:rx="7.4999938"
           sodipodi:ry="7.5000024"
           sodipodi:start="0.31864739"
           sodipodi:end="4.9929531"
           d="m -304.10552,378.34925 a 7.4999938,7.5000024 0 0 1 -9.38146,4.80209 7.4999938,7.5000024 0 0 1 -4.92078,-9.31976 7.4999938,7.5000024 0 0 1 9.25653,-5.03869" />
      </g>
    </g>
    <path
       style="color:#000000;display:inline;overflow:visible;visibility:visible;fill:#000000;fill-opacity:1;fill-rule:nonzero;stroke:none;stroke-width:6;marker:none;enable-background:accumulate"
       d="m -248,499.29695 -10,-9.5 10,-9.5 z"
       id="path7413"
       inkscape:connector-curvature="0"
       sodipodi:nodetypes="cccc" />
    <rect
       transform="scale(-1,-1)"
       style="color:#000000;clip-rule:nonzero;display:inline;overflow:visible;visibility:visible;opacity:1;isolation:auto;mix-blend-mode:normal;color-interpolation:sRGB;color-interpolation-filters:linearRGB;solid-color:#000000;solid-opacity:1;fill:#000000;fill-opacity:1;fill-rule:nonzero;stroke:#4a90d9;stroke-width:0;stroke-linecap:round;stroke-linejoin:miter;stroke-miterlimit:4;stroke-dasharray:none;stroke-dashoffset:0;stroke-opacity:1;marker:none;color-rendering:auto;image-rendering:auto;shape-rendering:auto;text-rendering:auto;enable-background:accumulate"
       id="rect7415"
       width="13.061281"
       height="4.9999938"
       x="238.62494"
       y="-492.29697" />
  </g>
</svg>
